!!!!SEGMENT: pl-kk--kk-i-2--005-004_anonim--missa-ii-brevis-ad-imitationem-missae-sine-nomine-sanctus.krn
!!!cenid: 16xx:1601
!!!COM: Anonim
!!!COM-rismID: pe30004985
!!!CDT:
!!!CNT:
!!!OPR: Missa II brevis ad imitationem missae Sine nomine
!!!OTL: Sanctus
!!!OMV: 004
!!!PDT:
!!!AGN: Sacred; Mass
!!!SMS-siglum: PL-Kk
!!!SMS-shelfmark: Kk.I.2
!!!SMS-shelfwork: 005-004 M
!!!SMS-variant:
!!!SMS-altvar:
!!!NIFC-rismSourceID: 300258016
!!!NIFC-rismChildID: 300258021
!!!NIFC-islandoraID: pl-kk:750
!!!URL-pdf-islandora: https://repozytorium.nifc.pl/islandora/object/pl-kk%3A750/datastream/PDF/view
!!!URL-scan: https://polish.musicsources.pl/pl/lokalizacje/galeria/rekopisy/5828 @EN{Scan on Polish Music Sources Website} @PL{Skany w portalu Dziedzictwo Muzyki Polskiej w otwartym dostępie}
!!!ONB-nifc: Części mszy: Kyrie, Gloria, Credo, Sanctus, Agnus Dei; skany: C: 0013-0014; A: 0113-0114; T: 0216-0217; B: 0317;
!!!AIN: 1 alto 1 bass 1 soprn 1 tenor
!!!key: a:phr
**kern	**text	**kern	**text	**kern	**text	**kern	**text
*part4	*part4	*part3	*part3	*part2	*part2	*part1	*part1
*staff4	*staff4	*staff3	*staff3	*staff2	*staff2	*staff1	*staff1
*I"BASVS	*	*I"TENOR	*	*I"ALTVS	*	*I"DISCANTVS	*
*I'B	*	*I'T	*	*I'A	*	*I'C	*
*Ibass	*	*Itenor	*	*Ialto	*	*Isoprn	*
*ICvox	*	*ICvox	*	*ICvox	*	*ICvox	*
*clefF4	*	*clefC4	*	*clefC4	*	*clefC1	*
*k[]	*	*k[]	*	*k[]	*	*k[]	*
*a:phr	*	*a:phr	*	*a:phr	*	*a:phr	*
*M2/1	*	*M2/1	*	*M2/1	*	*M2/1	*
*met(C|)	*	*met(C|)	*	*met(C|)	*	*met(C|)	*
=1-	=1-	=1-	=1-	=1-	=1-	=1-	=1-
*xywh-#317:1381,2172,6004,902	*	*xywh-#216:7796,2892,5777,1103	*	*xywh-#113:7766,3406,6084,1521	*	*xywh-#13:7673,1351,5834,1040	*
!	!	!LO:TX:t=P:problem=kreska pseudotaktowa	!	!	!	!LO:TX:t=P:problem=kreska pseudotaktowa	!
00r	.	1r	.	1E	San-	0r	.
!	!	!	!	!LO:TX:t=P:problem=kreska pseudotaktowa	!	!	!
.	.	1E	Sanc-	1E	-ctus	.	.
=2-	=2-	=2-	=2-	=2-	=2-	=2-	=2-
.	.	2.E/	-tus	2.G/	.	0e	San-
!	!	!	!	!LO:TX:t=P:problem=kreska pseudotaktowa	!	!	!
.	.	4F/	.	4A/	.	.	.
.	.	2G/	.	2B/	.	.	.
*	*	*	*	*	*ij	*	*
.	.	1A\	.	1c\	San-	.	.
=3-	=3-	=3-	=3-	=3-	=3-	=3-	=3-
!LO:TX:t=P:problem=kreska pseudotaktowa	!	!	!	!	!	!	!
1r	.	.	.	.	.	1e	-ctus
.	.	4G/	.	4B/	.	.	.
!	!	!	!	!LO:TX:t=P:problem=kreska pseudotaktowa	!	!	!
.	.	4F/	.	4A/	.	.	.
!	!	!LO:TX:t=P:problem=kreska pseudotaktowa	!	!	!	!	!
2r	.	1E	.	2B/	.	2.g/	.
!	!	!	!	!LO:TX:t=P:problem=kreska pseudotaktowa	!	!	!
2E\	Sanc-	.	.	2c/	.	.	.
!	!	!	!	!	!	!LO:TX:t=P:problem=kreska pseudotaktowa	!
.	.	.	.	.	.	4a/	.
=4-	=4-	=4-	=4-	=4-	=4-	=4-	=4-
2.E\	-tus	0r	.	2B/	.	4b\	.
.	.	.	.	.	.	4g/	.
.	.	.	.	2e\	.	2cc\	.
!LO:TX:t=P:problem=kreska pseudotaktowa	!	!	!	!	!	!	!
4F\	.	.	.	.	.	.	.
2G\	.	.	.	2d\	.	2b\	.
!	!	!	!	!LO:TX:t=P:problem=kreska pseudotaktowa	!	!	!
2A\	.	.	.	2c\	.	1a\	.
=5-	=5-	=5-	=5-	=5-	=5-	=5-	=5-
!LO:TX:t=P:problem=kreska pseudotaktowa	!	!	!	!	!	!	!
1E	.	2r	.	1B	-ctus	.	.
*	*	*	*	*	*Xij	*	*
!	!	!LO:TX:t=P:problem=kreska pseudotaktowa	!	!	!	!	!
.	.	2E/	san-	.	.	2g/	.
!	!	!	!	!	!	!LO:TX:t=P:problem=kreska pseudotaktowa	!
2r	.	2F/	.	2.A/	ſan-	0a	.
*	*ij	*	*	*	*	*	*
2AA/	Sanc-	2E/	-ctus	.	.	.	.
!	!	!	!	!LO:TX:t=P:problem=kreska pseudotaktowa	!	!	!
.	.	.	.	4B/	.	.	.
=6-	=6-	=6-	=6-	=6-	=6-	=6-	=6-
2.AA/	-tus	1A	.	4c\	.	.	.
*	*Xij	*	*	*	*	*	*
.	.	.	.	4d\	.	.	.
.	.	.	.	2.e\	.	.	.
!LO:TX:t=P:problem=kreska pseudotaktowa	!	!	!	!	!	!	!
4BB/	.	.	.	.	.	.	.
2C/	.	2G/	.	.	.	2r	.
.	.	.	.	4d\	.	.	.
2D/	.	2F/	.	1d\	.	2.a/	San-
=7-	=7-	=7-	=7-	=7-	=7-	=7-	=7-
!LO:TX:t=P:problem=kreska pseudotaktowa	!	!	!	!	!	!	!
1AA	.	1E	.	.	.	.	.
.	.	.	.	.	.	4b\	-ctus
*	*	*	*	*custos:d	*	*	*
!	!	!	!	!LO:TX:t=P:problem=kreska pseudotaktowa	!	!LO:TX:t=P:problem=kreska pseudotaktowa	!
.	.	.	.	2c\	.	2cc\	.
!	!	!	!	!LO:PB:g=original	!	!	!
*	*	*	*	*xywh-#114:1651,504,6011,1018	*	*	*
2r	.	2D/	.	2d\	.	2b\	.
*	*ij	*	*	*	*	*	*
!	!	!LO:TX:t=P:problem=kreska pseudotaktowa	!	!	!	!	!
2E/	Sanc-	2G/	.	2e\	.	1g\	.
=8-	=8-	=8-	=8-	=8-	=8-	=8-	=8-
*	*	*	*ij	*	*	*	*
2.E/	-tus	2.G/	san-	2B/	.	.	.
*	*Xij	*	*	*	*	*	*
.	.	.	.	1e	.	2cc\	.
4F/	.	4A/	.	.	.	.	.
2G\	.	2B/	.	.	.	2b\	.
!	!	!	!	!LO:TX:t=P:problem=kreska pseudotaktowa	!	!	!
2A\	.	2c/	.	2A/	.	1a\	.
=9-	=9-	=9-	=9-	=9-	=9-	=9-	=9-
*custos:F	*	*custos:A	*	*	*	*	*
!LO:TX:t=P:problem=kreska pseudotaktowa	!	!LO:TX:t=P:problem=kreska pseudotaktowa	!	!	!	!	!
1E	.	1B	.	2.e\	-ctus	.	.
*	*	*	*	*	*	*custos:a	*
!	!	!	!	!	!	!LO:TX:t=P:problem=kreska pseudotaktowa	!
.	.	.	.	.	.	2g/	.
.	.	.	.	4d\	.	.	.
!	!	!LO:LB:g=original	!	!	!	!LO:TX:t=P:problem=kreska pseudotaktowa	!
*	*	*xywh-#216:7847,3608,6291,1617	*	*	*	*	*
!LO:LB:g=original	!	!LO:TX:t=P:problem=kreska pseudotaktowa	!	!	!LO:LB:g=original	!	!
*xywh-#317:1360,2913,5913,983	*	*	*	*	*	*xywh-#13:7741,2165,5716,1040	*
2F\	.	00A	-ctus	2c\	.	0a	.
*	*	*	*Xij	*	*	*	*
!	!	!	!	!LO:TX:t=P::problem=kreska pseudotaktowa&colon;między nutą a kropką	!	!	!
2.D/	.	.	.	2.f\	do-	.	.
=10-	=10-	=10-	=10-	=10-	=10-	=10-	=10-
.	.	.	.	.	.	.	.
4C/	.	.	.	4e\	.	.	.
4D/	.	.	.	4f\	.	.	.
4BB/	.	.	.	4d\	-mi-	.	.
!LO:TX:t=P:problem=kreska pseudotaktowa	!	!	!	!	!	!	!
0AA	.	.	.	2f\	-nus	2r	.
*	*	*	*	*	*	*	*ij
!	!	!	!	!LO:TX:t=P:problem=kreska pseudotaktowa	!	!	!
.	.	.	.	2e\	.	2cc\	San-
=11-	=11-	=11-	=11-	=11-	=11-	=11-	=11-
.	.	.	.	4A/	de-	2cc\	.
.	.	.	.	4B/	.	.	.
!	!	!	!	!	!	!LO:TX:t=P:problem=kreska pseudotaktowa	!
.	.	.	.	4c/	.	2cc\	.
.	.	.	.	4d/	.	.	.
1r	.	0r	.	2.e\	.	2b\	.
.	.	.	.	.	.	2g/	.
!	!	!	!	!LO:TX:t=P:problem=kreska pseudotaktowa	!	!	!
.	.	.	.	4d\	.	.	.
=12-	=12-	=12-	=12-	=12-	=12-	=12-	=12-
2r	.	.	.	2c\	.	1a	.
2F\	Do-	.	.	2.A/	.	.	.
2F\	-mi-	2r	.	.	.	1a	.
.	.	.	.	4B/	.	.	.
!LO:TX:t=P:problem=kreska pseudotaktowa	!	!LO:TX:t=P:problem=kreska pseudotaktowa	!	!	!	!	!
2F\	-nus	2c\	do-	4c\	.	.	.
.	.	.	.	4d\	.	.	.
=13-	=13-	=13-	=13-	=13-	=13-	=13-	=13-
!	!	!	!	!	!	!LO:TX:t=P:problem=kreska pseudotaktowa	!
2E/	de-	2c\	-mi-	1e	.	0g	-ctus
*	*	*	*	*	*	*	*Xij
2C/	-us	2c\	-nus	.	.	.	.
2G\	sab-	2B/	de-	2.d\	.	.	.
!	!	!LO:TX:t=P:problem=kreska pseudotaktowa	!	!	!	!	!
2G\	-ba-	2G/	-us	.	.	.	.
.	.	.	.	4e\	.	.	.
=14-	=14-	=14-	=14-	=14-	=14-	=14-	=14-
2.F\	.	2.A/	.	1f	.	2r	.
.	.	.	.	.	.	2cc\	do-
4E/	.	4B/	.	.	.	.	.
!	!	!	!	!LO:TX:t=P:problem=kreska pseudotaktowa	!	!	!
2.C/	.	2c\	.	1e	-us	2cc\	-mi-
!	!	!	!	!	!	!LO:TX:t=P:problem=kreska pseudotaktowa	!
.	.	2A/	.	.	.	2cc\	-nus
4D/	.	.	.	.	.	.	.
=15-	=15-	=15-	=15-	=15-	=15-	=15-	=15-
1E	.	2G/	.	2r	.	2b\	De-
.	.	1c	.	1e	Sab-	2g/	-us
!LO:TX:t=P:problem=kreska pseudotaktowa	!	!	!	!	!	!	!
1F	.	.	.	.	.	2a/	Sa-
!	!	!	!	!	!	!LO:TX:t=P:problem=kreska pseudotaktowa	!
.	.	4B/	.	2d\	.	2a/	-ba-
!	!	!LO:TX:t=P:problem=kreska pseudotaktowa	!	!	!	!	!
.	.	4A/	.	.	.	.	.
=16-	=16-	=16-	=16-	=16-	=16-	=16-	=16-
*lig	*	*	*	*	*	*	*
1E	.	2B\	.	1e	-ba-	2g/	-oth
*	*	*	*	*	*	*	*ij
.	.	2c\	.	.	.	2a\	De-
1D	.	2.d\	.	1f	-oth	2b\	.
!	!	!	!	!	!	!LO:TX:t=P:problem=kreska pseudotaktowa	!
.	.	.	.	.	.	2a\	-us
.	.	4c\	Sa-	.	.	.	.
=17-	=17-	=17-	=17-	=17-	=17-	=17-	=17-
*	*	*	*	*custos:c	*	*	*
!LO:TX:a:t=2	!	!	!	!LO:TX:t=P:problem=kreska pseudotaktowa	!	!	!
0E	.	2B/	-ba-	00el	.	2g\	Sab-
.	.	2A/	.	.	.	1a	.
.	.	1B	-oth	.	.	.	.
.	.	.	.	.	.	2g\	-ba-
*Xlig	*	*	*	*	*	*	*
=18-	=18-	=18-	=18-	=18-	=18-	=18-	=18-
*custos:F	*	*custos:c	*	*	*	*	*
!LO:TX:t=P:problem=kreska pseudotaktowa	!	!LO:TX:t=P:problem=kreska pseudotaktowa	!	!	!	!	!
0AAl;>	-oth	0Al;>	.	.	.	0a	-oth
*	*	*	*	*	*	*	*Xij
=19||-	=19||-	=19||-	=19||-	=19||-	=19||-	=19||-	=19||-
*M2/1	*	*M2/1	*	*M2/1	*	*	*
*met(C|)	*	*met(C|)	*	*met(C|)	*	*	*
*xywh-#317:1410,3734,5933,963	*	*xywh-#217:1547,656,5818,1002	*	*xywh-#114:1713,1180,5836,1079	*	*xywh-#13:7841,2988,5607,797	*
!	!	!	!	!LO:TX:a:t=6.	!	!LO:TX:a:t=Pleni Baccho dormiunt.	!
!	!	!LO:LB:g=original	!	!LO:LB:g=original	!	!	!
0r	.	1c	Ple-	00r	.	0ryy	.
.	.	2.c\	-ni	.	.	.	.
!	!	!LO:TX:t=P:problem=kreska pseudotaktowa	!	!	!	!	!
.	.	4B/	ſunt	.	.	.	.
=20-	=20-	=20-	=20-	=20-	=20-	=20-	=20-
!LO:TX:t=P:problem=kreska pseudotaktowa	!	!	!	!	!	!	!
1r	.	4c/	coe-	.	.	0ryy	.
.	.	4A/	-li	.	.	.	.
.	.	4B-X/	.	.	.	.	.
.	.	4A/	.	.	.	.	.
1F	Ple-	4F/	.	.	.	.	.
.	.	4G/	.	.	.	.	.
.	.	4A/	.	.	.	.	.
!	!	!LO:TX:t=P:problem=kreska pseudotaktowa	!	!	!	!	!
.	.	4B-/	.	.	.	.	.
=21-	=21-	=21-	=21-	=21-	=21-	=21-	=21-
!	!	!	!	!LO:TX:t=P:problem=kreska pseudotaktowa	!	!	!
2.F\	-ni	4c/	.	0r	.	0ryy	.
.	.	4d/	.	.	.	.	.
.	.	2.c/	.	.	.	.	.
4E/	.	.	.	.	.	.	.
4F\	.	.	.	.	.	.	.
4D/	.	4Bny/	.	.	.	.	.
!LO:TX:t=P:problem=kreska pseudotaktowa	!	!	!	!	!	!	!
2E/	.	4G/	.	.	.	.	.
!	!	!LO:TX:t=P:problem=kreska pseudotaktowa	!	!	!	!	!
.	.	4A/	.	.	.	.	.
=22-	=22-	=22-	=22-	=22-	=22-	=22-	=22-
2D/	ſunt	2B/	.	2r	.	0ryy	.
2.F\	ce-	2.A/	.	2c\	Ple-	.	.
.	.	.	.	2.c\	-ni	.	.
4E/	.	4G/	.	.	.	.	.
4C/	.	4E/	.	.	.	.	.
!	!	!LO:TX:t=P:problem=kreska pseudotaktowa	!	!LO:TX:t=P:problem=kreska pseudotaktowa	!	!	!
4D/	.	4F/	.	4B/	.	.	.
=23-	=23-	=23-	=23-	=23-	=23-	=23-	=23-
1E	.	1G	.	4c\	.	0ryy	.
.	.	.	.	4A/	.	.	.
!	!	!	!	!LO:TX:t=P:problem=kreska pseudotaktowa	!	!	!
.	.	.	.	2B/	.	.	.
*lig	*	*	*	*	*	*	*
1AA	-li	2E/	.	2A/	ſunt	.	.
.	.	1A\	.	1c\	ce-	.	.
=24-	=24-	=24-	=24-	=24-	=24-	=24-	=24-
!LO:TX:t=P:problem=kreska pseudotaktowa	!	!	!	!	!	!	!
1E	.	.	.	.	.	0ryy	.
!	!	!LO:TX:t=P:problem=kreska pseudotaktowa	!	!LO:TX:t=P:problem=kreska pseudotaktowa	!	!	!
.	.	2G/	.	2B/	.	.	.
*Xlig	*	*	*	*	*	*	*
2AA,/	et	2c\	.	2A/	.	.	.
2E\	.	2.B\	.	2G/	.	.	.
=25-	=25-	=25-	=25-	=25-	=25-	=25-	=25-
*	*	*	*	*lig	*	*	*
2.F\	ter-	.	.	1A	.	0ryy	.
.	.	4A/	.	.	.	.	.
.	.	1A	.	.	.	.	.
4E/	.	.	.	.	.	.	.
2D/	.	.	.	1B	.	.	.
!LO:TX:t=P:problem=kreska pseudotaktowa	!	!LO:TX:t=P:problem=kreska pseudotaktowa	!	!	!	!	!
2E/	-ra	2G/	.	.	.	.	.
*	*	*	*	*Xlig	*	*	*
=26-	=26-	=26-	=26-	=26-	=26-	=26-	=26-
!	!	!	!	!LO:TX:t=P:problem=kreska pseudotaktowa	!	!	!
4AA/	glo-	2A/	.	1A	-li	0ryy	.
4BB/	.	.	.	.	.	.	.
*	*	*custos:G	*	*	*	*	*
!	!	!LO:TX:t=P:problem=kreska pseudotaktowa	!	!	!	!	!
4C/	.	2E/	et	.	.	.	.
!LO:TX:t=P:problem=kreska pseudotaktowa	!	!	!	!	!	!	!
4AA/	.	.	.	.	.	.	.
!	!	!LO:LB:g=original	!	!	!	!	!
*	*	*xywh-#217:1696,1517,5616,931	*	*	*	*	*
2BB/	-ri-	1G	ter-	2r	.	.	.
2.C/	-a	.	.	2.E/	ſunt	.	.
=27-	=27-	=27-	=27-	=27-	=27-	=27-	=27-
.	.	1.A	-ra	.	.	0ryy	.
4AA/	.	.	.	4D/	.	.	.
1D	tu-	.	.	1F	ce-	.	.
!	!	!LO:TX:t=P:problem=kreska pseudotaktowa	!	!	!	!	!
4C/	.	2A/	glo-	4E/	.	.	.
!LO:TX:t=P:problem=kreska pseudotaktowa	!	!	!	!LO:TX:t=P:problem=kreska pseudotaktowa	!	!	!
4BB/	.	.	.	4D/	.	.	.
=28-	=28-	=28-	=28-	=28-	=28-	=28-	=28-
4AA/	.	1A	.	2E/	.	0ryy	.
4BB/	.	.	.	.	.	.	.
4C/	.	.	.	1e	.	.	.
*custos:E	*	*	*	*	*	*	*
!LO:TX:t=P:problem=kreska pseudotaktowa	!	!	!	!	!	!	!
4D/	.	.	.	.	.	.	.
!LO:LB:g=original	!	!	!	!	!	!	!
*xywh-#317:7677,322,6187,1298	*	*	*	*	*	*	*
1E	.	2G/	-ria	.	.	.	.
!	!	!LO:TX:t=P:problem=kreska pseudotaktowa	!	!	!	!	!
.	.	2G/	tu-	4d\	.	.	.
!	!	!	!	!LO:TX:t=P:problem=kreska pseudotaktowa	!	!	!
.	.	.	.	4c\	.	.	.
=29-	=29-	=29-	=29-	=29-	=29-	=29-	=29-
2D/	.	2A/	-a	2f\	.	0ryy	.
2C/	.	1c	.	2e\	.	.	.
!LO:TX:t=P:problem=kreska pseudotaktowa	!	!	!	!	!	!	!
1F	.	.	.	4A/	-li	.	.
.	.	.	.	4B/	.	.	.
!	!	!LO:TX:t=P:problem=kreska pseudotaktowa	!	!	!	!	!
.	.	2A/	.	4c\	.	.	.
.	.	.	.	4d\	.	.	.
=30-	=30-	=30-	=30-	=30-	=30-	=30-	=30-
!	!	!	!	!LO:TX:t=P:problem=kreska pseudotaktowa	!	!	!
2.E/	.	2c\	.	0.e	.	0ryy	.
.	.	2.B\	.	.	.	.	.
4F/	.	.	.	.	.	.	.
4G\	.	.	.	.	.	.	.
4E/	.	4G/	.	.	.	.	.
1A\	-a	1c\	.	.	.	.	.
=31-	=31-	=31-	=31-	=31-	=31-	=31-	=31-
.	.	.	.	.	.	0ryy	.
4G\	.	4B/	.	.	.	.	.
!LO:TX:t=P:problem=kreska pseudotaktowa	!	!LO:TX:t=P:problem=kreska pseudotaktowa	!	!	!	!	!
4F\	.	4A/	.	.	.	.	.
*	*	*	*	*custos:e	*	*	*
2G\	.	2B\	.	2r	.	.	.
!	!	!	!	!LO:LB:g=original	!	!	!
*	*	*	*	*xywh-#114:1730,2102,5678,860	*	*	*
!	!	!	!	!LO:TX:t=P:problem=kreska pseudotaktowa	!	!	!
1A\	glo-	2.c\	.	2e\	et	.	.
=32-	=32-	=32-	=32-	=32-	=32-	=32-	=32-
.	.	.	.	2.e\	ter-	0ryy	.
.	.	4B\	.	.	.	.	.
!	!	!LO:TX:t=P::problem=kreska pseudotaktowa&colon;między nutą a kropką	!	!	!	!	!
2G\	-ri-	(<2.B\	.	.	.	.	.
.	.	.	.	4d\	.	.	.
1A	-a	.	.	2c\	.	.	.
.	.	4A/)	.	.	.	.	.
.	.	1A\	.	2A/	-ra	.	.
=33-	=33-	=33-	=33-	=33-	=33-	=33-	=33-
!LO:TX:t=P:problem=kreska pseudotaktowa	!	!	!	!	!	!	!
1E	tu-	.	.	1B	glo-	0ryy	.
!	!	!LO:TX:t=P:problem=kreska pseudotaktowa	!	!	!	!	!
.	.	2G/	.	.	.	.	.
!	!	!	!	!LO:TX:t=P:problem=kreska pseudotaktowa	!	!	!
4AA/	-a	2A/	glo-	1c	-ri-	.	.
4BB/	.	.	.	.	.	.	.
4C/	.	4E/	-ri-	.	.	.	.
!	!	!LO:TX:t=P:problem=kreska pseudotaktowa	!	!	!	!	!
4D/	.	4F/	-a	.	.	.	.
=34-	=34-	=34-	=34-	=34-	=34-	=34-	=34-
2E/	.	4G/	.	2B/	-a	0ryy	.
.	.	4E/	.	.	.	.	.
2.AA/	.	1A	tu-	1c	.	.	.
4BB/	.	.	.	.	.	.	.
4C/	.	4G/	.	4B/	tu-	.	.
*	*	*custos:G	*	*	*	*	*
!	!	!	!	!LO:TX:t=P:problem=kreska pseudotaktowa	!	!	!
!LO:TX:t=P:problem=kreska pseudotaktowa	!	!LO:TX:t=P:problem=kreska pseudotaktowa	!	!	!	!	!
4D/	.	4F/	.	4A/	.	.	.
=35-	=35-	=35-	=35-	=35-	=35-	=35-	=35-
!	!	!LO:LB:g=original	!	!	!	!	!
*	*	*xywh-#217:1635,2369,5880,870	*	*	*	*	*
2E/	.	4G/	.	2c\	.	0ryy	.
.	.	4A/	.	.	.	.	.
2D/	.	2.B/	.	2.d\	.	.	.
*lig	*	*	*	*	*	*	*
1F	.	.	.	.	.	.	.
.	.	4A/	.	4c\	.	.	.
.	.	1A\	.	4B/	.	.	.
!	!	!	!	!LO:TX:t=P:problem=kreska pseudotaktowa	!	!	!
.	.	.	.	4A/	.	.	.
=36-	=36-	=36-	=36-	=36-	=36-	=36-	=36-
!	!	!	!	!LO:TX:t=P:problem=kreska pseudotaktowa	!	!	!
1E	.	.	.	1B	.	0ryy	.
.	.	2G/	.	.	.	.	.
*Xlig	*	*	*	*	*	*	*
!	!	!LO:TX:t=P:problem=kreska pseudotaktowa	!	!	!	!	!
2.AA/	.	0A	-a	4A/	-a	.	.
.	.	.	.	4B/	.	.	.
.	.	.	.	4c\	.	.	.
!LO:TX:t=P:problem=kreska pseudotaktowa	!	!	!	!LO:TX:t=P:problem=kreska pseudotaktowa	!	!	!
4BB/	.	.	.	4d\	.	.	.
=37-	=37-	=37-	=37-	=37-	=37-	=37-	=37-
4C/	.	.	.	4e\	.	0ryy	.
*custos:D	*	*	*	*	*	*	*
4AA/	.	.	.	4c\	.	.	.
!LO:LB:g=original	!	!	!	!LO:TX:t=P::problem=kreska pseudotaktowa&colon;między nutą a kropką	!	!	!
*xywh-#317:7758,1346,5700,1024	*	*	*	*	*	*	*
2.D/	.	.	.	2.f\	glo-	.	.
.	.	2r	.	.	.	.	.
4C/	.	.	.	4e\	.	.	.
4D/	.	1A\	glo-	4f\	.	.	.
4BB/	.	.	.	4d\	-ri-	.	.
=38-	=38-	=38-	=38-	=38-	=38-	=38-	=38-
!LO:TX:t=P:problem=kreska pseudotaktowa	!	!	!	!	!	!	!
1AA	.	.	.	2e\	-a	0ryy	.
!	!	!	!	!LO:TX:t=P:problem=kreska pseudotaktowa	!	!	!
.	.	2E/	-ri-	2c\	tu-	.	.
*	*	*	*	*custos:c	*	*	*
2r	.	2G/	-a	2B\	-a	.	.
*	*	*	*	*xywh-#114:1721,2769,5757,1026	*	*	*
*	*	*	*	*	*ij	*	*
1A\	glo-	2F/	tu-	2.c\	glo-	.	.
=39-	=39-	=39-	=39-	=39-	=39-	=39-	=39-
!	!	!LO:TX:t=P:problem=kreska pseudotaktowa	!	!	!	!	!
.	.	1E	-a	.	.	0ryy	.
.	.	.	.	4B/	.	.	.
!LO:TX:t=P:problem=kreska pseudotaktowa	!	!	!	!	!	!	!
2E\	-ri-	.	.	4G/	.	.	.
!	!	!	!	!LO:TX:t=P:problem=kreska pseudotaktowa	!	!	!
.	.	.	.	4A/	.	.	.
2G\	-a	2r	.	2B/	-ri-	.	.
*	*	*	*ij	*	*	*	*
2F\	.	2A/	glo-	1A\	-a	.	.
=40-	=40-	=40-	=40-	=40-	=40-	=40-	=40-
1E	.	2c\	-ri-	.	.	0ryy	.
!	!	!LO:TX:t=P:problem=kreska pseudotaktowa	!	!LO:TX:t=P:problem=kreska pseudotaktowa	!	!	!
.	.	2B\	-a	2G/	tu-	.	.
00AA	tu-	2.c\	tu-	2A/	.	.	.
.	.	.	.	1E/	.	.	.
.	.	4B/	.	.	.	.	.
=41-	=41-	=41-	=41-	=41-	=41-	=41-	=41-
.	.	2A/	.	.	.	0ryy	.
.	.	2G/	.	2.e\	.	.	.
.	.	2A/	.	.	.	.	.
.	.	.	.	4d\	.	.	.
.	.	2E/	.	1c\	.	.	.
=42-	=42-	=42-	=42-	=42-	=42-	=42-	=42-
.	.	1A	.	.	.	0ryy	.
.	.	.	.	4B/	.	.	.
.	.	.	.	4A/	.	.	.
!	!	!LO:TX:a:t=Osanna\npost Benedict(us).	!	!LO:TX:t=P:problem=kreska pseudotaktowa	!	!	!
!LO:TX:t=P:problem=kreska pseudotaktowa	!	!LO:TX:t=P:problem=kreska pseudotaktowa	!	!	!	!	!
1El;>	-a	1Gl;>	-a	1Bl;>	-a	.	.
*	*	*	*Xij	*	*Xij	*	*
=43||-	=43||-	=43||-	=43||-	=43||-	=43||-	=43||-	=43||-
*M2/1	*	*M2/1	*	*M2/1	*	*M2/1	*
*met(C|)	*	*met(C|)	*	*met(C|)	*	*met(C|)	*
*	*	*xywh-#217:7807,514,6161,1151	*	*	*	*xywh-#13:7715,3634,5867,1049	*
!	!	!	!	!LO:TX:t=P:problem=kreska pseudotaktowa	!	!	!
0A	O-	0c	O-	1r	.	0r	.
.	.	.	.	0e	O-	.	.
=44-	=44-	=44-	=44-	=44-	=44-	=44-	=44-
*lig	*	*lig	*	*	*	*	*
!	!	!	!	!	!	!LO:TX:t=P:problem=kreska pseudotaktowa	!
1G	-ſan-	1B	-ſan-	.	.	1r	.
1F	.	1A	.	1d	-ſan-	0a	O-
*Xlig	*	*	*	*	*	*	*
=45-	=45-	=45-	=45-	=45-	=45-	=45-	=45-
!LO:TX:t=P:problem=kreska pseudotaktowa	!	!LO:TX:a:t=2	!	!	!	!	!
0E	-na	0B	na	0e	-na	.	.
*	*	*	*	*	*	*lig	*
.	.	.	.	.	.	1g	-ſan-
*	*	*	*	*	*	*	*
*	*	*Xlig	*	*	*	*	*
=46-	=46-	=46-	=46-	=46-	=46-	=46-	=46-
*	*	*	*ij	*	*ij	*	*
!LO:TX:a:t=1.	!	!	!	!	!	!	!
1r	.	1.A	O-	1.c	O-	1a	na
*	*	*	*	*	*	*Xlig	*ij
!	!	!	!	!	!	!LO:TX:t=P:problem=kreska pseudotaktowa	!
0F	in	.	.	.	.	0.cc	O-
!	!	!LO:TX:t=P:problem=kreska pseudotaktowa	!	!LO:TX:t=P:problem=kreska pseudotaktowa	!	!	!
.	.	2B\	.	2B/	-san-	.	.
=47-	=47-	=47-	=47-	=47-	=47-	=47-	=47-
.	.	2c\	-san-	2A/	.	.	.
.	.	2.A/	.	2.c\	.	.	.
*lig	*	*	*	*	*	*	*
1E	ex-	.	.	.	.	.	.
.	.	4G/	.	4G/	.	.	.
.	.	1G/	.	1c\	.	.	.
=48-	=48-	=48-	=48-	=48-	=48-	=48-	=48-
1D	.	.	.	.	.	1dd	-san-
*	*	*	*	*custos:c	*	*	*
!	!	!LO:TX:t=P:problem=kreska pseudotaktowa	!	!LO:TX:t=P:problem=kreska pseudotaktowa	!	!	!
.	.	2F/	.	2B/	.	.	.
*Xlig	*	*	*	*	*	*	*
!	!	!	!	!LO:LB:g=original	!	!	!
*	*	*	*	*	*	*	*
0.C	-cel-	2G/	.	2.c\	.	2.ee\	.
*	*	*custos:c	*	*	*	*	*
!	!	!LO:TX:t=P:problem=kreska pseudotaktowa	!	!	!	!	!
.	.	2G/	-na	.	.	.	.
*	*	*	*Xij	*	*	*	*
.	.	.	.	4d\	.	4dd\	.
=49-	=49-	=49-	=49-	=49-	=49-	=49-	=49-
!	!	!LO:LB:g=original	!	!	!	!	!
*	*	*xywh-#217:7825,1464,5783,984	*	*	*	*	*
.	.	1.c	O-	1e	.	2cc\	.
!	!	!	!	!	!	!LO:TX:t=P:problem=kreska pseudotaktowa	!
.	.	.	.	.	.	2b\	.
!	!	!	!	!LO:TX:t=P:problem=kreska pseudotaktowa	!	!	!
.	.	.	.	1e	.	2a\	.
.	.	2B/	-ſan-	.	.	1g\	.
=50-	=50-	=50-	=50-	=50-	=50-	=50-	=50-
*lig	*	*lig	*	*	*	*	*
1D	.	1A	-na	1d	-na	.	.
*	*	*	*	*	*Xij	*	*
.	.	.	.	.	.	2f/	.
*	*	*	*	*lig	*	*	*
*custos:AA	*	*	*	*	*	*	*
!	!	!	!	!	!	!LO:TX:t=P:problem=kreska pseudotaktowa	!
!LO:TX:t=P:problem=kreska pseudotaktowa	!	!	!	!	!	!	!
1E	.	1G	.	1B	O-	1g	.
*Xlig	*	*Xlig	*	*	*	*	*
=51-	=51-	=51-	=51-	=51-	=51-	=51-	=51-
*	*	*	*	*col	*	*lig	*
!LO:LB:g=original	!	!LO:TX:t=P:problem=kreska pseudotaktowa	!	!	!	!	!
*xywh-#317:7687,2016,6562,1186	*	*	*	*	*	*	*
2AA/	-ſis	1A	.	1.c	.	0e	.
*	*ij	*	*	*	*	*	*
1A	in	.	.	.	.	.	.
.	.	1E	in	.	.	.	.
*	*	*	*	*Xlig	*	*	*
!LO:TX:t=P:problem=kreska pseudotaktowa	!	!	!	!LO:TX:t=P:problem=kreska pseudotaktowa	!	!	!
2G\	ex-	.	.	2B\	-ſan-	.	.
*	*	*	*	*Xcol	*	*	*
=52-	=52-	=52-	=52-	=52-	=52-	=52-	=52-
2F\	-cel-	2.A/	ex-	2c\	-na	0f	.
2D/	.	.	.	2d\	.	.	.
.	.	4G/	-cel-	.	.	.	.
1F	.	4A/	-ſis	2c\	.	.	.
.	.	4D/	.	.	.	.	.
.	.	2.d\	.	2.A/	.	.	.
*	*	*	*	*	*	*Xlig	*
=53-	=53-	=53-	=53-	=53-	=53-	=53-	=53-
*lig	*	*	*	*	*	*	*
1E	.	.	.	.	.	2g/	.
.	.	4c\	.	4G/	.	.	.
.	.	1c	.	1G	.	2e/	.
1D	.	.	.	.	.	1f	.
!	!	!LO:TX:t=P:problem=kreska pseudotaktowa	!	!LO:TX:t=P:problem=kreska pseudotaktowa	!	!	!
.	.	2B\	.	2F/	.	.	.
*Xlig	*	*	*	*	*	*	*
=54-	=54-	=54-	=54-	=54-	=54-	=54-	=54-
*	*	*	*ij	*	*	*	*
!LO:TX:t=P:problem=kreska pseudotaktowa	!	!	!	!	!	!LO:TX:t=P:problem=kreska pseudotaktowa	!
0C	-ſis	2c\	in	2G/	.	0e	-na
*	*Xij	*	*	*	*	*	*Xij
.	.	2G/	ex-	2c\	in	.	.
.	.	2G/	-cel-	4c\	ex-	.	.
.	.	.	.	4B\	.	.	.
!	!	!LO:TX:t=P:problem=kreska pseudotaktowa	!	!	!	!	!
.	.	2G/	-sis	4c\	.	.	.
!	!	!	!	!LO:TX:t=P:problem=kreska pseudotaktowa	!	!	!
.	.	.	.	4d\	.	.	.
=55-	=55-	=55-	=55-	=55-	=55-	=55-	=55-
2r	.	1.c	in	1.e	.	2r	.
2C/	o-	.	.	.	.	2g/	o-
2C/	-ſan-	.	.	.	.	2g/	-ſan-
!LO:TX:t=P:problem=kreska pseudotaktowa	!	!	!	!LO:TX:t=P:problem=kreska pseudotaktowa	!	!	!
2C/	-na	2B\	.	2e\	.	2g/	-na
=56-	=56-	=56-	=56-	=56-	=56-	=56-	=56-
1F	in	2.A/	.	2c\	-cel-	1a	.
.	.	.	.	2d\	.	.	.
!	!	!LO:TX:t=P:problem=kreska pseudotaktowa	!	!	!	!	!
.	.	4B/	.	.	.	.	.
1.E	ex-	2c\	.	2.e\	.	1.g	.
.	.	2B\	.	.	.	.	.
.	.	.	.	4d\	.	.	.
=57-	=57-	=57-	=57-	=57-	=57-	=57-	=57-
.	.	2G/	.	2B/	.	.	.
2C/	.	1A	.	1c	.	2e/	.
1D	-cel-	.	.	.	.	1f	in
*	*	*	*	*custos:c	*	*	*
!	!	!	!	!LO:TX:t=P:problem=kreska pseudotaktowa	!	!	!
.	.	4G/	.	2B/	.	.	.
!	!	!LO:TX:t=P:problem=kreska pseudotaktowa	!	!	!	!	!
.	.	4F/	.	.	.	.	.
=58-	=58-	=58-	=58-	=58-	=58-	=58-	=58-
*	*	*	*	*	*	*custos:g	*
!LO:TX:t=P:problem=kreska pseudotaktowa	!	!	!LO:LB:g=original	!	!	!LO:TX:t=P:problem=kreska pseudotaktowa	!
*	*	*	*	*xywh-#114:7984,554,6239,1018	*	*	*
0C	-ſis	2G/	.	2c/	-ſis	1e	ex-
*	*	*custos:G	*	*	*	*	*
!	!	!LO:TX:t=P:problem=kreska pseudotaktowa	!	!	!	!	!
.	.	2A/	.	2c/	o-	.	.
!	!	!LO:PB:g=original	!	!	!	!LO:PB:g=original	!
*	*	*xywh-#217:7825,2237,5748,887	*	*	*	*xywh-#14:1500,591,5747,981	*
.	.	2G/	.	1.e	-ſan-	0g	-cel-
.	.	2G/	ex-	.	.	.	.
=59-	=59-	=59-	=59-	=59-	=59-	=59-	=59-
2r	.	2c\	-cel-	.	.	.	.
*	*ij	*	*	*	*	*	*
!	!	!LO:TX:t=P:problem=kreska pseudotaktowa	!	!	!	!	!
2C/	in	2c\	-sis	2e\	-na	.	.
*	*	*	*Xij	*	*	*	*
2G\	ex-	1B	O-	1d	in	1g	-ſis
!LO:TX:t=P:problem=kreska pseudotaktowa	!	!	!	!	!	!	!
2G\	-cel-	.	.	.	.	.	.
=60-	=60-	=60-	=60-	=60-	=60-	=60-	=60-
!	!	!	!	!	!	!LO:TX:t=P:problem=kreska pseudotaktowa	!
2F\	.	1c	-ſan-	0f	ex-	0a	.
1E	.	.	.	.	.	.	.
.	.	1d	-na	.	.	.	.
2D/	.	.	.	.	.	.	.
=61-	=61-	=61-	=61-	=61-	=61-	=61-	=61-
00E	.	2B\	in	00e	-cel-	2.g/	o-
!	!	!LO:TX:t=P:problem=kreska pseudotaktowa	!	!	!	!	!
.	.	2c\	ex-	.	.	.	.
.	.	.	.	.	.	4a/	-ſan-
.	.	2B\	-cel-	.	.	4b/	-na
.	.	.	.	.	.	4g/	in
.	.	2G/	.	.	.	2.cc\	ex-
=62-	=62-	=62-	=62-	=62-	=62-	=62-	=62-
*	*	*lig	*	*	*	*	*
.	.	1c	.	.	.	.	.
.	.	.	.	.	.	4b/	-cel-
.	.	.	.	.	.	1a	.
.	.	1B	.	.	.	.	.
.	.	.	.	.	.	2g/	-ſis
*	*	*Xlig	*	*	*	*	*
=63-	=63-	=63-	=63-	=63-	=63-	=63-	=63-
!LO:TX:t=P:problem=kreska pseudotaktowa	!	!LO:TX:t=P:problem=kreska pseudotaktowa	!	!LO:TX:t=P:problem=kreska pseudotaktowa	!	!	!
0AAl;>	-ſis	0Al;>	-sis	0el	-ſis	0al	.
*	*Xij	*	*	*	*	*	*
=64||-	=64||-	=64||-	=64||-	=64||-	=64||-	=64||-	=64||-
*	*	*M2/1	*	*M2/1	*	*M2/1	*
*	*	*met(C|)	*	*met(C|)	*	*met(C|)	*
!LO:TX:a:t=Benedictus\ntacet.	!	!	!	!	!	!LO:TX:a:t=2	!
!LO:TX:b:t=Osanna da Capo.	!	!	!	!	!	!LO:TX:t=P:problem=kreska pseudotaktowa	!
*	*	*xywh-#217:1476,3108,5906,878	*	*	*	*	*
0ryy	.	1r	.	1E	Be-	0r	.
!	!	!	!	!LO:TX:t=P:problem=kreska pseudotaktowa	!	!	!
.	.	2r	.	1E	-ne-	.	.
!	!	!LO:TX:t=P:problem=kreska pseudotaktowa	!	!	!	!	!
.	.	2E/	Be-	.	.	.	.
=65-	=65-	=65-	=65-	=65-	=65-	=65-	=65-
0ryy	.	2.E/	-ne-	2.G/	-di-	0e	Be-
.	.	4F/	-di-	4A/	.	.	.
.	.	2G/	.	2B,/	-ct(us)	.	.
.	.	1A\	.	1c\	Be-	.	.
=66-	=66-	=66-	=66-	=66-	=66-	=66-	=66-
0ryy	.	.	.	.	.	1e	-ne-
.	.	4G/	-ctus	4B/	.	.	.
!	!	!LO:TX:t=P:problem=kreska pseudotaktowa	!	!LO:TX:t=P:problem=kreska pseudotaktowa	!	!	!
.	.	4F/	.	4A/	.	.	.
.	.	2.E/	qui	2B/	-ne-	2.g/	-di-
.	.	.	.	2e\	.	.	.
!	!	!	!	!	!	!LO:TX:t=P:problem=kreska pseudotaktowa	!
.	.	4F/	.	.	.	4a/	.
=67-	=67-	=67-	=67-	=67-	=67-	=67-	=67-
0ryy	.	2G/	.	2d\	-di-	4b\	.
.	.	.	.	.	.	4g/	.
!	!	!LO:TX:t=P:problem=kreska pseudotaktowa	!	!LO:TX:t=P:problem=kreska pseudotaktowa	!	!	!
.	.	2A/	ve-	2c\	.	2cc\	.
.	.	2G/	-nit	4d\	.	2b\	.
.	.	.	.	4c\	.	.	.
.	.	2A/	.	4c\	.	1a\	.
.	.	.	.	8B/	.	.	.
.	.	.	.	8A/	.	.	.
=68-	=68-	=68-	=68-	=68-	=68-	=68-	=68-
*	*	*	*	*custos:A	*	*	*
!	!	!	!	!LO:TX:t=P:problem=kreska pseudotaktowa	!	!	!
0ryy	.	4E/	ve-	1B	.	.	.
.	.	4F/	.	.	.	.	.
*	*	*	*	*	*	*custos:a	*
!	!	!	!	!	!	!LO:TX:t=P:problem=kreska pseudotaktowa	!
.	.	4G/	.	.	.	2g/	.
!	!	!LO:TX:t=P:problem=kreska pseudotaktowa	!	!	!	!	!
.	.	4E/	.	.	.	.	.
!	!	!	!	!LO:LB:g=original	!	!LO:LB:g=original	!
*	*	*	*	*xywh-#114:8045,1388,5669,930	*	*xywh-#14:1596,1327,5598,981	*
.	.	2F/	.	2A,/	-ctus	2a/	-ctus
!	!	!	!	!	!	!LO:TX:t=P:problem=kreska pseudotaktowa	!
.	.	2D/	.	1d\	qui	2f/	q(ui)
=69-	=69-	=69-	=69-	=69-	=69-	=69-	=69-
!	!	!LO:TX:t=P:problem=kreska pseudotaktowa	!	!	!	!	!
0ryy	.	0A	-nit	.	.	2e/	ve-
.	.	.	.	4c\	.	2.a/	.
!	!	!	!	!LO:TX:t=P:problem=kreska pseudotaktowa	!	!	!
.	.	.	.	4B\	.	.	.
.	.	.	.	2.c\	ve-	.	.
.	.	.	.	.	.	4g/	.
.	.	.	.	.	.	4a/	.
!	!	!	!	!	!	!LO:TX:t=P:problem=kreska pseudotaktowa	!
.	.	.	.	4d\	.	4f/	.
=70-	=70-	=70-	=70-	=70-	=70-	=70-	=70-
0ryy	.	1r	.	2e\	.	2g/	.
!	!	!	!	!LO:TX:t=P::problem=kreska pseudotaktowa&colon;między nutą a kropką	!	!	!
.	.	.	.	2.f\	.	2.a/	.
.	.	2r	.	.	.	.	.
.	.	.	.	4e\	.	4g/	.
!	!	!LO:TX:t=P:problem=kreska pseudotaktowa	!	!	!	!	!
.	.	2D/	qui	4d\	.	4f/	.
.	.	.	.	4c\	.	4e/	.
=71-	=71-	=71-	=71-	=71-	=71-	=71-	=71-
0ryy	.	4D/	ve-	1d	.	1f	.
.	.	4E/	.	.	.	.	.
.	.	4F/	.	.	.	.	.
.	.	4G/	.	.	.	.	.
!	!	!	!	!	!	!LO:TX:t=P:problem=kreska pseudotaktowa	!
.	.	2.A/	.	2.c\	.	0.e	-nit
!	!	!	!	!LO:TX:t=P:problem=kreska pseudotaktowa	!	!	!
.	.	4F/	.	4A/	.	.	.
=72-	=72-	=72-	=72-	=72-	=72-	=72-	=72-
0ryy	.	2G/	.	2B/	.	.	.
.	.	1A	.	1c	.	.	.
.	.	4G/	.	4B/	.	.	.
*	*	*custos:E	*	*	*	*	*
!	!	!	!	!LO:TX:t=P:problem=kreska pseudotaktowa	!	!	!
!	!	!LO:TX:t=P:problem=kreska pseudotaktowa	!	!	!	!	!
.	.	4F/	.	4A/	.	.	.
=73-	=73-	=73-	=73-	=73-	=73-	=73-	=73-
!	!	!LO:LB:g=original	!	!	!	!	!
*	*	*xywh-#217:1600,3749,5757,1019	*	*	*	*	*
0ryy	.	2E/	.	2G/	.	2r	.
.	.	2F/	.	2A/	.	1a	in
.	.	2D/	.	1B	.	.	.
!	!	!LO:TX:t=P:problem=kreska pseudotaktowa	!	!	!	!LO:TX:t=P:problem=kreska pseudotaktowa	!
.	.	2E/	.	.	.	2g/	no-
=74-	=74-	=74-	=74-	=74-	=74-	=74-	=74-
!	!	!	!	!LO:TX:t=P:problem=kreska pseudotaktowa	!	!	!
0ryy	.	4F/	.	1A	-nit	2.cc\	-mi-
.	.	4G/	.	.	.	.	.
.	.	4A/	.	.	.	.	.
.	.	4F/	.	.	.	4cc\	-ne
.	.	2G/	.	2r	.	2b\	do-
!	!	!	!	!	!	!LO:TX:t=P:problem=kreska pseudotaktowa	!
.	.	2A/	.	1A\	in	2a\	-mi-
=75-	=75-	=75-	=75-	=75-	=75-	=75-	=75-
!	!	!LO:TX:t=P:problem=kreska pseudotaktowa	!	!	!	!	!
0ryy	.	1E	-nit	.	.	1b	.
!	!	!	!	!LO:TX:t=P:problem=kreska pseudotaktowa	!	!	!
.	.	.	.	2G/	no-	.	.
.	.	2r	.	2.c\	-mi-	2.e/	.
.	.	2A/	in	.	.	.	.
.	.	.	.	4c\	-ne	4f/	.
=76-	=76-	=76-	=76-	=76-	=76-	=76-	=76-
0ryy	.	2G/	no-	2B/	do-	2g/	.
.	.	1c	-mi-	2A/	-mi-	2a\	.
.	.	.	.	2G/	-ni	2d/	.
*	*	*	*	*	*ij	*	*
*	*	*	*	*custos:A	*	*custos:cc	*
!	!	!	!	!LO:TX:t=P:problem=kreska pseudotaktowa	!	!LO:TX:t=P:problem=kreska pseudotaktowa	!
!	!	!LO:TX:t=P:problem=kreska pseudotaktowa	!	!	!	!	!
.	.	2B/	-ne	2G/	in	2dd\	.
=77-	=77-	=77-	=77-	=77-	=77-	=77-	=77-
!	!	!	!	!LO:LB:g=original	!	!LO:LB:g=original	!
*	*	*	*	*xywh-#114:7984,2186,6380,930	*	*xywh-#14:1465,2177,5773,954	*
0ryy	.	2A/	do-	2A/	no-	2cc\	.
.	.	2G/	-mi-	2B/	-mi-	2.b\	.
.	.	1A	.	2.c\	-ne	.	.
.	.	.	.	.	.	4a/	.
.	.	.	.	.	.	1a\	.
!	!	!	!	!LO:TX:t=P:problem=kreska pseudotaktowa	!	!	!
.	.	.	.	4d\	.	.	.
=78-	=78-	=78-	=78-	=78-	=78-	=78-	=78-
*	*	*lig	*	*	*	*	*
0ryy	.	1E	.	2B/	Do-	.	.
!	!	!	!	!	!	!LO:TX:t=P:problem=kreska pseudotaktowa	!
.	.	.	.	2.c\	.	2g/	.
.	.	1F	.	.	.	2a\	-ni
.	.	.	.	4B/	.	.	.
*	*	*	*	*	*	*	*ij
.	.	.	.	1A\	.	2a\	in
*	*	*Xlig	*	*	*	*	*
=79-	=79-	=79-	=79-	=79-	=79-	=79-	=79-
!	!	!LO:TX:t=P:problem=kreska pseudotaktowa	!	!	!	!	!
0ryy	.	1E	-ni	.	.	2cc\	no-
!	!	!	!	!	!	!LO:TX:t=P:problem=kreska pseudotaktowa	!
.	.	.	.	2G/	.	2b\	.
.	.	2r	.	1A	-mi-	2.cc\	-mi-
*	*	*	*ij	*	*	*	*
.	.	2A/	in	.	.	.	.
.	.	.	.	.	.	8b/	.
!	!	!	!	!	!	!LO:TX:t=P:problem=kreska pseudotaktowa	!
.	.	.	.	.	.	8a/	.
=80-	=80-	=80-	=80-	=80-	=80-	=80-	=80-
!	!	!	!	!LO:TX:t=P:problem=kreska pseudotaktowa	!	!	!
0ryy	.	2c\	no-	1E	-ni	2.g/	-ne
*	*	*	*	*	*Xij	*	*
!	!	!LO:TX:t=P:problem=kreska pseudotaktowa	!	!	!	!	!
.	.	2B\	-mi-	.	.	.	.
.	.	.	.	.	.	4f/	.
!	!	!	!	!LO:TX:a:t=2	!	!	!
!	!	!	!	!LO:TX:t=P:problem=kreska pseudotaktowa	!	!	!
.	.	2.c\	-ne	0r	.	4e/	.
.	.	.	.	.	.	4d/	.
!	!	!	!	!	!	!LO:TX:t=P:problem=kreska pseudotaktowa	!
.	.	.	.	.	.	2g/	Do-
.	.	4B/	.	.	.	.	.
=81-	=81-	=81-	=81-	=81-	=81-	=81-	=81-
0ryy	.	2A/	do-	.	.	2f/	.
.	.	2G/	.	.	.	1e	.
.	.	1F	-mi-	2r	.	.	.
!	!	!	!	!LO:TX:t=P:problem=kreska pseudotaktowa	!	!	!
.	.	.	.	2A/	in	2d/	-mi-
=82-	=82-	=82-	=82-	=82-	=82-	=82-	=82-
!	!	!LO:TX:t=P:problem=kreska pseudotaktowa	!	!	!	!LO:TX:t=P:problem=kreska pseudotaktowa	!
0ryy	.	1E	-ni	2c\	no-	0.e	-ni
*	*	*	*Xij	*	*	*	*Xij
.	.	.	.	2B\	-mi-	.	.
*	*	*custos:A	*	*	*	*	*
.	.	2r	.	2.c\	-ne	.	.
*	*	*	*ij	*	*	*	*
!	!	!LO:PB:g=original	!	!	!	!	!
*	*	*xywh-#217:7765,492,6284,1177	*	*	*	*	*
!	!	!LO:TX:t=P:problem=kreska pseudotaktowa	!	!	!	!	!
.	.	2A/	qui	.	.	.	.
!	!	!	!	!LO:TX:t=P:problem=kreska pseudotaktowa	!	!	!
.	.	.	.	4B/	.	.	.
=83-	=83-	=83-	=83-	=83-	=83-	=83-	=83-
0ryy	.	2c\	ve-	2A/	do-	.	.
.	.	2B\	-nit	2G/	-mi-	.	.
!	!	!	!	!LO:TX:t=P:problem=kreska pseudotaktowa	!	!	!
.	.	2.c\	in	1A	-(ni)	2r	.
.	.	.	.	.	.	2a/	i[n]
!	!	!LO:TX:t=P:problem=kreska pseudotaktowa	!	!	!	!	!
.	.	4B/	no-	.	.	.	.
=84-	=84-	=84-	=84-	=84-	=84-	=84-	=84-
0ryy	.	2A/	-mi-	2r	.	2cc\	no-
*	*	*	*	*	*ij	*	*
!	!	!	!	!	!	!LO:TX:t=P:problem=kreska pseudotaktowa	!
.	.	2G/	-ne	2E/	in	2b\	-mi-
.	.	2A/	Do-	2A/	no-	2cc\	-ne
.	.	2E/	.	2G/	-mi-	2.b\	do-
=85-	=85-	=85-	=85-	=85-	=85-	=85-	=85-
*	*	*lig	*	*	*	*	*
0ryy	.	1F	-mi-	2.A/	-ne	.	.
.	.	.	.	.	.	4a/	-mi-
.	.	.	.	.	.	1a	.
.	.	.	.	4B/	.	.	.
.	.	1E	.	2c/	Do-	.	.
*	*	*	*	*	*	*custos:a	*
!	!	!	!	!	!	!LO:TX:t=P:problem=kreska pseudotaktowa	!
.	.	.	.	2B/	.	2g/	.
*	*	*Xlig	*	*	*	*	*
=86-	=86-	=86-	=86-	=86-	=86-	=86-	=86-
*	*	*lig	*	*	*	*	*
!	!	!	!	!	!	!LO:LB:g=original	!
*	*	*	*	*	*	*xywh-#14:1526,2983,5677,1016	*
0ryy	.	1F	.	2A/	.	4a/	.
.	.	.	.	.	.	4g/	.
.	.	.	.	1d	.	4f/	.
.	.	.	.	.	.	4e/	.
.	.	1D	.	.	.	1f	-ni
.	.	.	.	4c\	-mi-	.	.
.	.	.	.	4B\	.	.	.
*	*	*Xlig	*	*	*	*	*
=87-	=87-	=87-	=87-	=87-	=87-	=87-	=87-
!	!	!	!	!LO:TX:a:t=P:problem=# above	!	!	!
!	!	!	!	!LO:TX:b:t=Osanna ut Supra	!	!LO:TX:a:t=Osanna ut Supra	!
0ryy	.	0Al	-ni	0c#Xl	-ni	0el;>	.
*	*	*	*Xij	*	*Xij	*	*
=-	=-	=-	=-	=-	=-	=-	=-
*-	*-	*-	*-	*-	*-	*-	*-
!!!system-decoration: [(s1,s2,s3,s4)]
!!!RDF**kern: l = terminal long
!!!RDF**kern: < = below
!!!RDF**kern: > = above
!!!ENC: Andrzej Gręziak
!!!END: 2022-01-04
!!!ENC: Marta Chmielewska
!!!END: 2022-01-07
!!!IIIF: https://repozytorium.nifc.pl/islandora/object/pl-kk%3A750/datastream/IIIF/view
!!!ENC-iiif: Jan Barakat
!!!END-iiif: 2022-09-03
!!!YEC: Copyright 2022 Narodowy Instytut Fryderyka Chopina (https://polishscores.org)
!!!YEM: License CC-BY-4.0 (https://creativecommons.org/licenses/by/4.0)
